X: 4052
T: BUT AND BEN
R: Strathspey.
%R: strathspey
B: James Kerr "Merry Melodies" v.4 p.08 #52
Z: 2016 John Chambers <jc:trillian.mit.edu>
M: C
L: 1/8
K: D
|:\
vA>vGuF>uE D2d>e | f2e>d (f<a)a2 |\
A>GF>E D2d>e | f>ed>c B3d :|
|:\
A>Bd>e f>ed>A | B2g>B (B<A) A>B |\
A>Bd>e f>af>d |[1 B<B g>f e3A :|[2 B<d c<e d3z |]

%%sep 1 1 500
%%sep 1 1 500

